!!!OTL: Aue verum corpus natum
**kern
*staff1
=1-
*clefF4
*k[]
*met(c|)
*M2/2
0E
=2
0E
=3
1F
1F
=4
0E
=5
0E
=6
1F
1E
=7
1F
1G
=8
1E
0C
1G
=9
0A
=10
0E
=11
!!linebreak:original
1E
1E
=12
1D
1E
=13
0C
=14
1G
1C
=15
0D
=16
0G
=17
1C
1C
=18
0D
=19
0E
=20
1G
1C
=21
0G
=22
0C
=23
!!linebreak:original
1E
1G
=24
0D
=25
1E
1C#
=26
0D
=27
0AA
=28
1E
1E
=29
1F
1E
=30
1F
1G
=31
0E
=32
0E
=33
!!linebreak:original
1C
1C
=34
0G
=35
1A
1D
=36
0E
=37
0AA
=38
1E
1E
=39
0F
=40
1D
0C
1G
=41
0A
=42
0E
=43
!!linebreak:original
1E
1AA
=44
1E
1E
=45
1D
1D
=46
0C
=47
0D
=48
0AA
=49
!!pagebreak:original
0C
=50
0C
=51
0G
=52
0A
=53
0F
=54
0E
=55
0E
=56
0G
1E
=57
!!linebreak:original
1F
1E
1E
=58
0F
=59
0E
=60
0C
=61
1G
1G
=62
0A
=63
!LO:TX:Y=-40:t=P
0E
=64
!!linebreak:original
1C
1D
=65
1F
1E
=66
0E
=67
1E
1C
=68
1D
1AA
=69
1C
0D
=70
0AA
==
*-
!!title: @{OTL}, @{GTL}, ed. @{ENC}
!!!pag:
!!!GTL: Hymnbook D
!!!EFL: 
!!!YEM: Creative Commons CC/BY/NC/SA 4.0
!!!ENC: Marcin Konik
!!!END: 2015-0m-dd
!!!EED: Marcin Konik
!!!EEV: 
!!!ONB: Encoded in vim by Marcin Konik
!!!CharacterEncoding: utf-8
!!!RDF**kern: l=long note in original notation
!!!RDF**kern: i=editorial accidental
!!muse2ps: z14jc180F
!!!COM: Anonim
!!!CDT: [?]
!!!TXO: Polish
!!!ODT: 
!!!GTL: Hymnbook D
!!!ARL: Opactwo św. Wojciecha, Staniątki 
!!!voices:	1
